static/logos/nike-glyph-black.svg

<svg width="87" height="33" viewBox="0 0 87 33" fill="none" xmlns="http://www.w3.org/2000/svg">
<g clip-path="url(#clip0_1202_261)">
<path fill-rule="evenodd" clip-rule="evenodd" d="M14.0324 1C8.97887 6.77348 1.98097 13.2372 0.301332 21.3027C-2.34626 34.0162 13.119 33.6731 20.6254 30.5701C42.7186 21.4376 64.5705 11.7315 86.5427 2.3123C65.1788 8.00275 43.8913 13.989 22.4502 19.3835C7.11124 23.2431 10.0963 9.55177 14.0324 1Z" fill="black"/>
<path d="M14.0816 0.00785745C14.0754 0.00245516 14.0674 -0.000349459 14.0592 3.48697e-05C14.051 0.000419199 14.0433 0.00396291 14.0377 0.00991859C13.72 0.371546 13.827 0.250229 13.72 0.371348C13.6395 0.462486 13.5578 0.552627 13.4767 0.643499C13.1768 0.981395 12.8744 1.31816 12.5713 1.65313C11.6565 2.66276 10.7339 3.66509 9.82315 4.67778C7.67997 7.05934 5.58731 9.50764 3.84007 12.1999C2.48017 14.2952 1.33333 16.5461 0.640924 18.9532C0.52229 19.365 0.417664 19.7807 0.327225 20.1996C-0.13272 22.3394 -0.2097 24.6707 0.771814 26.683C0.926769 27.0007 1.10718 27.3078 1.30987 27.5977C1.63267 28.0583 2.01252 28.4771 2.43577 28.8481C3.06815 29.4018 3.79313 29.8452 4.55681 30.1942C5.72844 30.7293 6.99062 31.0484 8.26283 31.2306C10.1416 31.4998 12.0587 31.4832 13.942 31.2764C15.8033 31.0724 17.6533 30.6848 19.4289 30.0859C20.1701 29.8359 20.8894 29.5295 21.612 29.2303C22.4462 28.8846 23.2798 28.539 24.1128 28.1913C26.9865 26.9941 29.8549 25.7882 32.7214 24.575C43.5283 19.9988 54.2947 15.3263 65.0598 10.6543C70.4856 8.29964 75.9093 5.94008 81.3424 3.60379C82.6579 3.03815 83.9741 2.47424 85.2897 1.90866C85.6041 1.77339 85.9179 1.63671 86.2323 1.50143C86.3181 1.46461 86.4045 1.42824 86.4902 1.39135C86.5009 1.38663 86.5601 1.36436 86.5607 1.35811C86.5627 1.34581 86.5501 1.34754 86.5421 1.34568C86.5428 1.34316 86.5374 1.34229 86.5401 1.33943C86.5408 1.3383 86.5374 1.34083 86.5361 1.34149C86.5175 1.34216 86.4956 1.34874 86.4843 1.35186C86.4284 1.36676 86.3732 1.38065 86.3181 1.39554C86.0395 1.46979 85.761 1.54351 85.4825 1.61777C84.7592 1.81095 84.0366 2.00559 83.314 2.19943C81.2008 2.76563 79.088 3.33347 76.9756 3.90294C70.6384 5.61309 64.306 7.3396 57.9702 9.0548C46.8275 12.0709 35.6789 15.0723 24.487 17.9022C23.8169 18.0717 23.1482 18.2419 22.4781 18.4094C21.9104 18.551 21.3381 18.6786 20.7624 18.783C20.3132 18.8651 19.8614 18.9316 19.4076 18.9824C19.0573 19.0216 18.707 19.0496 18.3546 19.0655C19.4276 19.019 20.4952 18.8614 21.5435 18.6354C22.0254 18.5317 22.5027 18.4114 22.9807 18.2911C23.4832 18.1641 23.9865 18.0378 24.489 17.9108C27.2803 17.2055 30.0677 16.4843 32.8543 15.7623C42.3856 13.2934 51.889 10.7228 61.3917 8.14695C66.9763 6.63309 72.5623 5.11805 78.1495 3.61204C80.0122 3.11008 81.8748 2.61131 83.7375 2.11221C84.377 1.94091 85.0171 1.7698 85.6573 1.59909L86.241 1.44333C86.2955 1.42864 86.35 1.41435 86.4052 1.39966C86.4018 1.40112 86.3979 1.40238 86.3945 1.40385C86.3088 1.44067 86.223 1.47704 86.1373 1.51393C85.8507 1.63678 85.5649 1.76082 85.2791 1.88367C84.135 2.37519 82.991 2.86505 81.8469 3.35657C77.3 5.31029 72.759 7.2817 68.2174 9.25037C56.9079 14.1523 45.6057 19.0742 34.253 23.877C30.9272 25.2837 27.6001 26.6856 24.267 28.073C23.3762 28.4439 22.4848 28.8155 21.5933 29.1844C20.9552 29.4484 20.3197 29.7196 19.6675 29.9489C18.3739 30.4036 17.0338 30.74 15.683 30.9733C14.7975 31.1262 13.9061 31.2412 13.0093 31.3077C12.314 31.3589 11.6153 31.3795 10.9173 31.3742C10.3576 31.3695 9.79656 31.3436 9.23949 31.2911C8.8659 31.2558 8.4943 31.2126 8.12363 31.1561C5.77551 30.7978 3.33372 29.9303 1.75027 28.075C1.49766 27.7792 1.27065 27.4607 1.07302 27.1257C0.785708 26.6384 0.563412 26.1139 0.402075 25.5722C0.14528 24.71 0.0453675 23.8066 0.0572002 22.9085C0.0764782 21.4473 0.378012 19.9948 0.807113 18.6022C1.49208 16.3799 2.56134 14.2926 3.8172 12.3415C5.74041 9.35341 8.09172 6.66853 10.4753 4.04413C11.271 3.16785 12.074 2.29569 12.8664 1.41628C13.0997 1.15722 13.0087 1.25714 14.0191 0.122064C14.0191 0.121599 14.0211 0.120535 14.0211 0.120003C14.0763 0.0581139 14.0211 0.119736 14.0836 0.0494048C14.0863 0.0465998 14.0884 0.0432728 14.0898 0.0396265C14.0911 0.0359802 14.0917 0.0320918 14.0915 0.028201C14.0914 0.0243103 14.0904 0.020497 14.0887 0.0169987C14.087 0.0135004 14.0845 0.0103907 14.0816 0.00785745ZM18.3546 19.0655C17.3761 19.1094 16.3537 19.0549 15.3925 18.8142C16.1536 19.0057 16.942 19.0848 17.7251 19.0861C17.9352 19.0868 18.1446 19.0748 18.3546 19.0655ZM13.9692 0.232213C13.9281 0.322073 13.8874 0.412083 13.8469 0.502238C13.7897 0.628808 13.7359 0.757239 13.6807 0.884473C13.71 0.816336 13.7924 0.628874 13.9692 0.232213ZM13.6807 0.884473C13.6694 0.909468 13.5963 1.073 13.5744 1.12339C13.5644 1.14798 13.5558 1.17358 13.5458 1.19817C13.5903 1.09361 13.6355 0.988774 13.6807 0.884473ZM13.5458 1.19817C13.5258 1.24404 13.5046 1.28938 13.4853 1.33525C13.248 1.8949 13.0266 2.46055 12.8146 3.03038C13.044 2.41405 13.2879 1.80315 13.5458 1.19817ZM12.8146 3.03038C12.8006 3.06681 12.784 3.10204 12.7707 3.13846C12.6996 3.33138 12.6337 3.52602 12.5653 3.72013C12.6461 3.48939 12.7292 3.25946 12.8146 3.03038ZM12.5653 3.72013C12.5108 3.87329 12.4529 4.02545 12.4011 4.17921C12.3884 4.21504 12.3778 4.25133 12.3658 4.28723C12.4297 4.09704 12.4981 3.90918 12.5653 3.72013ZM12.2409 4.67778C12.1518 4.95192 12.064 5.2262 11.9809 5.50247C12.0634 5.22647 12.1518 4.95166 12.2409 4.67778ZM11.9809 5.50247C11.9424 5.6337 11.9065 5.76552 11.8693 5.89721C11.9065 5.76565 11.9424 5.6335 11.9809 5.50247ZM11.8693 5.89721C11.8094 6.10547 11.747 6.31295 11.6924 6.52248C11.6758 6.58669 11.6612 6.65131 11.6446 6.71566C11.7151 6.44131 11.7915 6.16962 11.8693 5.89721ZM11.6446 6.71566C11.614 6.83578 11.5867 6.9567 11.5575 7.07715C11.5867 6.9565 11.614 6.83591 11.6446 6.71566ZM11.3494 7.99325C11.3415 8.03281 11.3308 8.07203 11.3228 8.11165C11.3149 8.14954 11.3095 8.18796 11.3022 8.22592C11.3175 8.14827 11.3335 8.0707 11.3494 7.99325ZM11.0237 9.93773C11.0077 10.0667 10.9971 10.1963 10.9838 10.326C10.9971 10.197 11.0077 10.0667 11.0237 9.93773ZM10.9838 10.326C10.9692 10.4729 10.9479 10.6191 10.9366 10.7667C10.9286 10.8657 10.926 10.9641 10.92 11.0638C10.934 10.8172 10.9592 10.5719 10.9838 10.326ZM10.9173 11.1323C10.9001 11.4454 10.8901 11.7592 10.8927 12.0729C10.8901 11.7592 10.9007 11.4461 10.9173 11.1323ZM10.8927 12.1108C10.8967 12.499 10.9193 12.8879 10.9612 13.2742C10.92 12.8859 10.8967 12.4957 10.8927 12.1108ZM10.9778 13.4171C10.9964 13.5706 11.0124 13.7242 11.0383 13.8764C11.0456 13.9196 11.0589 13.9615 11.0676 14.0054C11.0317 13.8099 11.0018 13.6145 10.9778 13.4171ZM11.0676 14.0054C11.1114 14.2447 11.1686 14.4813 11.2338 14.7153C11.168 14.4807 11.1114 14.2447 11.0676 14.0054ZM11.2338 14.7153C11.257 14.8018 11.277 14.8882 11.3042 14.9733C11.2776 14.8882 11.257 14.8018 11.2338 14.7153ZM11.5635 15.6673C11.6246 15.8062 11.6924 15.9418 11.7629 16.0761C11.6915 15.9423 11.625 15.8059 11.5635 15.6673ZM11.7629 16.0761C11.7762 16.1 11.7875 16.1253 11.8008 16.1492C11.7875 16.1253 11.7762 16.1007 11.7629 16.0761ZM11.8008 16.1492C11.8925 16.3174 11.9929 16.4829 12.1019 16.6411C11.9916 16.4816 11.8932 16.3174 11.8008 16.1492ZM12.1019 16.6411C12.2954 16.923 12.5141 17.1876 12.7647 17.4289C12.9448 17.6024 13.1423 17.7553 13.3464 17.9002C13.1449 17.7573 12.9495 17.6004 12.7667 17.4242C12.5193 17.1863 12.2966 16.9239 12.1019 16.6411ZM13.363 17.9128C13.4408 17.9673 13.5165 18.0258 13.5976 18.077C13.6847 18.1315 13.7798 18.1708 13.8695 18.2199C13.6967 18.1249 13.5252 18.0272 13.363 17.9128ZM14.7796 18.6274C14.8713 18.6593 14.9604 18.7006 15.0535 18.7291C15.1558 18.7597 15.2602 18.7817 15.3632 18.8083C15.1658 18.7577 14.971 18.6946 14.7796 18.6274Z" fill="black"/>
</g>
<defs>
<clipPath id="clip0_1202_261">
<rect width="87" height="33" fill="white" transform="matrix(1 0 0 -1 0 33)"/>
</clipPath>
</defs>
</svg>

<svg xmlns="http://www.w3.org/2000/svg" width="168.727" height="64" fill="none" viewBox="0 0 87 33"><g fill="#000" clip-path="url(#a)"><path fill-rule="evenodd" d="M14.032 1C8.98 6.773 1.981 13.237.302 21.303c-2.648 12.713 12.817 12.37 20.323 9.267C42.72 21.438 64.57 11.732 86.543 2.312 65.179 8.002 43.89 13.99 22.45 19.384 7.111 23.244 10.096 9.552 14.032 1" clip-rule="evenodd"/><path d="M14.082.008a.03.03 0 0 0-.044.002L13.72.37l-.243.272q-.45.507-.906 1.01c-.915 1.01-1.837 2.012-2.748 3.025C7.68 7.059 5.587 9.508 3.84 12.2c-1.36 2.095-2.507 4.346-3.2 6.753q-.177.618-.313 1.247c-.46 2.14-.537 4.47.445 6.483a6.8 6.8 0 0 0 1.664 2.165 8.7 8.7 0 0 0 2.12 1.346c1.172.535 2.435.854 3.707 1.037 1.879.269 3.796.252 5.679.045a26 26 0 0 0 5.487-1.19c.741-.25 1.46-.556 2.183-.856q1.252-.517 2.5-1.039 4.311-1.796 8.61-3.616c10.806-4.576 21.573-9.249 32.338-13.92C70.486 8.3 75.91 5.94 81.342 3.603l3.948-1.695.942-.408.258-.11c.01-.004.07-.027.07-.033.003-.012-.01-.01-.018-.012 0-.003-.005-.004-.002-.007l-.004.002c-.019.001-.04.008-.052.01l-.166.045-.835.222-2.169.581q-3.17.85-6.338 1.704c-6.338 1.71-12.67 3.437-19.006 5.152-11.142 3.016-22.291 6.017-33.483 8.847q-1.005.256-2.009.507c-.568.142-1.14.27-1.716.374q-.673.123-1.354.2-.525.059-1.053.082a19 19 0 0 0 3.189-.43c.481-.103.959-.224 1.437-.344l1.508-.38a1434 1434 0 0 0 8.365-2.149c9.532-2.469 19.035-5.04 28.538-7.615 5.584-1.514 11.17-3.029 16.758-4.535q2.793-.751 5.587-1.5l1.92-.513.584-.156.164-.043-.01.004-.258.11-.858.37-3.432 1.473C77.3 5.31 72.759 7.282 68.217 9.25c-11.31 4.902-22.611 9.824-33.964 14.627a1897 1897 0 0 1-9.986 4.196q-1.335.556-2.674 1.111c-.638.264-1.273.536-1.925.765a25 25 0 0 1-3.985 1.024c-.886.153-1.777.268-2.674.335a26 26 0 0 1-2.092.066 20 20 0 0 1-2.793-.218c-2.348-.358-4.79-1.226-6.374-3.081a6.7 6.7 0 0 1-1.348-2.503 9 9 0 0 1-.345-2.663c.02-1.462.321-2.914.75-4.307.685-2.222 1.754-4.31 3.01-6.26 1.923-2.989 4.275-5.673 6.658-8.298.796-.876 1.599-1.748 2.391-2.628.234-.259.143-.159 1.153-1.294l.002-.002.063-.07.006-.01a.03.03 0 0 0-.001-.023zm4.273 19.058c-.979.043-2.001-.011-2.963-.252.762.192 1.55.27 2.333.272.21 0 .42-.011.63-.02M13.969.232l-.122.27q-.085.191-.166.382c.029-.068.111-.255.288-.652m-.288.652-.107.24-.028.074zm-.135.314q-.03.069-.06.137zm-.731 1.832q-.023.055-.044.108-.104.29-.206.582.121-.345.25-.69m-.25.69c-.054.153-.112.305-.164.46q-.018.053-.035.107.097-.284.2-.567m-.584 1.782q-.057.198-.112.395.054-.198.112-.395m-.112.395c-.06.208-.122.416-.177.625q-.023.098-.047.194.106-.411.224-.819m-.224.819q-.045.18-.088.361.043-.18.088-.361m-.296 1.277-.026.119q-.012.057-.02.114.021-.117.046-.233m-.325 1.945q-.022.193-.04.388.018-.195.04-.388m-.04.388c-.015.147-.036.293-.047.44q-.01.149-.017.298c.014-.247.04-.492.064-.738m-.006 3.091c.018.154.034.307.06.46q.013.063.03.128a10 10 0 0 1-.09-.588m.256 1.298c.023.087.043.173.07.258q-.037-.128-.07-.258m.529 1.362q.018.035.038.072-.02-.036-.038-.073m.338.564q.29.425.664.788c.18.173.377.326.581.471a5 5 0 0 1-1.244-1.259m1.262 1.272c.078.054.154.113.235.164.087.054.182.094.271.143a5 5 0 0 1-.506-.307m1.417.714c.091.032.18.074.274.102.102.03.206.053.31.08a7 7 0 0 1-.584-.182"/></g><defs><clipPath id="a"><path fill="#fff" d="M0 33h87V0H0z"/></clipPath></defs></svg>
